X:1
T:Home of the Soul
T:Home of the Soul
T:Philip Phillips
T:Ellen Maria Huntington Gates, 1865
T:Public Domain Courtesy of the Cyber Hymnal™
T:Public Domain Courtesy of the Cyber Hymnal™
C:Philip Phillips
Z:Public Domain
Z:Courtesy of the Cyber Hymnal™
%%score ( 1 2 ) ( 3 4 )
L:1/8
Q:1/4=113
M:3/4
K:Eb
V:1 treble 
V:2 treble 
V:3 bass 
V:4 bass 
V:1
 E[EG] | [GB]3 [^F=A] [GB]2 | [EG]4 [EB][EB] | [Ec]3 [Ed] [Ee]2 | [EB]4 [EB]2 | [EB]3 [E=A] [EB]2 | %6
w: 1.~I will|sing you a|song of that|beau- ti- ful|land, The|far a- way|
w: 2.~Oh, that|home of the|soul! In my|vi- sions and|dreams Its|bright, jas- per|
w: 3.~That un-|change- a- ble|home is for|you and for|me, Where|Je- sus of|
w: 4.~Oh, how|sweet it will|be in that|beau- ti- ful|land, So|free from all|
 [EG]4 E[DF] | [EG]4 E[EF] | [EG]4 [DF]E | [EB]4 [DB][EB] | [Ec]3 [Ed] [Ee]2 | [EB]4 ([EB][EB]) | %12
w: home of the|soul, Where no|storms ev- er|beat on the|glit- ter- ing|strand, While~the *|
w: walls I can|see; Till I|fan- cy but|thin- ly the|veil in- ter-|venes Be- *|
w: Naz- a- reth|stands; Th- e|King of all|king- doms for-|ev- er is|He, And~He *|
w: sor- row and|pain, Wi- th|songs on our|lips and our|harps in our|hands, To *|
 [EB]4 [EG]E | [DF]3 E [DF]2 | (G B3) (B/c/[Ad]) | [Ge]3 [Bd] [Ac]2 | [GB]4 [EG]E | [DF]4 (E[DF]) | %18
w: years of e-|ter- ni- ty|roll, * While~the * *|years of e-|ter- ni- ty|roll; Where~no *|
w: tween the fair|ci- ty and|me, * Be- * *|~tween the fair|ci- ty and|me; Till~I *|
w: hold- eth our|crowns in His|hands, * A~nd~He * *|hold- eth our|crowns in His|hands; The *|
w: meet one a-|no- ther a-|gain, * To * *|meet one a-|no- ther a-|gain; With *|
 [EG]4 [EF]E | [EB]4 [DB][EB] | [Ec]3 [Ed] [Ee]2 | [EB]4 ([EB][EB]) | [EB]3 [EG] E2 | %23
w: storms ev- er|beat on the|glit- ter- ing|strand, While~the *|years of e-|
w: fan- cy but|thin- ly the|veil in- ter-|venes Be- *|tween the fair|
w: King of all|king- doms for-|ev- er is|He, And~He *|hold- eth our|
w: songs on our|lips and our|harps in our|hands, To *|meet one a-|
 [DF]3 E [DF]2 | E4 |] %25
w: ter- ni- ty|roll.|
w: ci- ty and|me.|
w: crowns in His|hands.|
w: no- ther a-|gain.|
V:2
 E x | x6 | x6 | x6 | x6 | x6 | x4 E x | x4 E x | x5 E | x6 | x6 | x6 | x5 E | x3 E x2 | E4 G x | %15
 x6 | x5 E | x4 E x | x5 E | x6 | x6 | x6 | x4 E2 | x3 E x2 | E4 |] %25
V:3
 [E,G,][E,B,] | [E,B,]3 [E,B,] [E,B,]2 | [E,B,]4 [E,G,][E,G,] | A,3 [A,B,] [A,C]2 | %4
 [G,B,]4 [E,G,]2 | [E,G,]3 [E,^F,] [E,G,]2 | [E,B,]4 [G,,B,][B,,B,] | [E,B,]4 [E,G,][E,A,] | %8
 [E,B,]4 [E,A,][E,G,] | [E,G,]4 [F,A,][G,B,] | A,3 [A,B,] [A,C]2 | [G,B,]4 ([E,G,][E,G,]) | %12
 [E,G,]4 [E,B,][E,G,] | [B,,A,]3 [B,,G,] [B,,B,]2 | (B, G,3) [E,B,][E,B,] | [E,B,]3 [E,B,] [E,C]2 | %16
 [E,E]4 [E,B,][E,G,] | [B,,B,]4 ([E,G,][B,,B,]) | [E,B,]4 [E,A,][E,G,] | [E,G,]4 [F,A,][G,B,] | %20
 A,3 [A,B,] [A,C]2 | [G,B,]4 ([E,G,][E,G,]) | [E,G,]3 [E,B,] [E,G,]2 | [B,,A,]3 [B,,G,] [B,,A,]2 | %24
 [E,G,]4 |] %25
V:4
 x2 | x6 | x6 | A,3 x3 | x6 | x6 | x6 | x6 | x6 | x6 | A,3 x3 | x6 | x6 | x6 | E,4 x2 | x6 | x6 | %17
 x6 | x6 | x6 | A,3 x3 | x6 | x6 | x6 | x4 |] %25

